icons/keyboard-box-fill.svg

<svg xmlns="http://www.w3.org/2000/svg" width="24" height="24" fill="none"><g clip-path="url(#a)"><g><path fill="#121212" d="M3 3H21C21.2652 3 21.5196 3.10536 21.7071 3.29289C21.8946 3.48043 22 3.73478 22 4V20C22 20.2652 21.8946 20.5196 21.7071 20.7071C21.5196 20.8946 21.2652 21 21 21H3C2.73478 21 2.48043 20.8946 2.29289 20.7071C2.10536 20.5196 2 20.2652 2 20V4C2 3.73478 2.10536 3.48043 2.29289 3.29289C2.48043 3.10536 2.73478 3 3 3ZM5 7V9H7V7H5ZM5 11V13H7V11H5ZM5 15V17H19V15H5ZM9 11V13H11V11H9ZM9 7V9H11V7H9ZM13 7V9H15V7H13ZM17 7V9H19V7H17ZM13 11V13H15V11H13ZM17 11V13H19V11H17Z"/></g></g><defs><clipPath id="a"><rect width="24" height="24" fill="white"/></clipPath></defs></svg>

<svg width="24" height="24" fill="none" xmlns="http://www.w3.org/2000/svg"><g clip-path="url(#a)"><path d="M3 3h18a1 1 0 0 1 1 1v16a1 1 0 0 1-1 1H3a1 1 0 0 1-1-1V4a1 1 0 0 1 1-1Zm2 4v2h2V7H5Zm0 4v2h2v-2H5Zm0 4v2h14v-2H5Zm4-4v2h2v-2H9Zm0-4v2h2V7H9Zm4 0v2h2V7h-2Zm4 0v2h2V7h-2Zm-4 4v2h2v-2h-2Zm4 0v2h2v-2h-2Z" /></g><defs><clipPath id="a"><path fill="#fff" d="M0 0h24v24H0z"/></clipPath></defs></svg>
